src/icons/svg/example.svg

<?xml version="1.0" encoding="UTF-8"?>
<svg width="40px" height="40px" viewBox="0 0 40 40" version="1.1" xmlns="http://www.w3.org/2000/svg"
>
    <path d="M30.0751974,17.9448136 L39.8996326,17.9448136 C38.9975768,8.52122254 31.3784101,0.902368483 21.954819,0 L21.954819,9.82474791 C26.0629667,10.6246057 29.2751813,13.8366967 30.0751974,17.9448136 L30.0751974,17.9448136 Z M17.9448136,9.82474791 L17.9448136,0 C8.52122254,0.902368483 0.902368483,8.52122254 0,17.9448136 L9.82474791,17.9448136 C10.6247196,13.8367871 13.8367871,10.6247196 17.9448136,9.82474791 Z M21.954819,30.0751974 L21.954819,39.8996326 C31.4787775,38.9975768 38.9975768,31.3784101 40,21.8547643 L30.1755648,21.8547643 C29.2731963,26.0651919 26.0651919,29.2731963 21.954819,30.0751974 L21.954819,30.0751974 Z M9.82474791,21.954819 L0,21.954819 C0.902368483,31.4787775 8.52122254,38.9975768 18.045181,40 L18.045181,30.1755648 C13.8347534,29.2731963 10.626749,26.0651919 9.82474791,21.954819 L9.82474791,21.954819 Z"
          id="形状"></path>
</svg>

<svg width="40" height="40" xmlns="http://www.w3.org/2000/svg"><path d="M30.075 17.945H39.9C38.998 8.52 31.378.902 21.955 0v9.825c4.108.8 7.32 4.012 8.12 8.12zm-12.13-8.12V0C8.52.902.902 8.521 0 17.945h9.825c.8-4.108 4.012-7.32 8.12-8.12zm4.01 20.25V39.9c9.524-.902 17.043-8.522 18.045-18.045h-9.824c-.903 4.21-4.11 7.418-8.221 8.22zm-12.13-8.12H0C.902 31.479 8.521 38.998 18.045 40v-9.824c-4.21-.903-7.418-4.11-8.22-8.221z"/></svg>
